X:550
T:Reel 550
M:4/4
K:Dmaj
L:1/8
A>F (3FFF dFGF|GFGB dBAG|FGAF GFDF|dAGF EBAF|FAAF GFdF|GBAF  (3Bcd AG|FGAF DFAd|cABc d2z2|Ad (3dcd fgaf|gfed cAAg|fddc dfaf|gfef gbag|fgaf  (3gag bg|fdef defg| (3agf  (3gfe fdec|BGBG FDD2|
